images/ai-sparkle.svg

<svg width="14" height="14" viewBox="0 0 14 14" fill="none" xmlns="http://www.w3.org/2000/svg">
<path d="M2.33295 0.999939V3.66661M0.999619 2.33327H3.66629M2.99962 10.3333V12.9999M1.66629 11.6666H4.33295M7.66628 0.999939L9.19009 5.57137L12.9996 6.99994L9.19009 8.42851L7.66628 12.9999L6.14248 8.42851L2.33295 6.99994L6.14248 5.57137L7.66628 0.999939Z" stroke="white" stroke-width="1.33333" stroke-linecap="round" stroke-linejoin="round"/>
</svg>

<svg width="14" height="14" fill="none" xmlns="http://www.w3.org/2000/svg" role="img" aria-hidden="true" focusable="false"><path d="M2.333 1v2.667M1 2.333h2.666m-.666 8V13m-1.334-1.333h2.667M7.666 1L9.19 5.57 13 7 9.19 8.429l-1.524 4.57-1.524-4.57-3.81-1.43 3.81-1.428L7.666 1z" stroke="#fff" stroke-width="1.333" stroke-linecap="round" stroke-linejoin="round"/></svg>
